lib/svgs/twitter.svg

<?xml version="1.0" encoding="UTF-8"?>
<svg width="16px" height="16px" viewBox="0 0 16 16" version="1.1" xmlns="http://www.w3.org/2000/svg" xmlns:xlink="http://www.w3.org/1999/xlink">
    <!-- Generator: sketchtool 51.3 (57544) - http://www.bohemiancoding.com/sketch -->
    <title>brand/twitter</title>
    <desc>Created with sketchtool.</desc>
    <defs></defs>
    <g id="Icons" stroke="none" stroke-width="1" fill="none" fill-rule="evenodd">
        <g id="Web" transform="translate(-147.000000, -1038.000000)" fill="#000000">
            <g id="brand/twitter" transform="translate(147.000000, 1038.000000)">
                <path d="M14.15632,4.06129151 C14.28128,3.99876999 14.40624,3.87388684 14.5,3.7801845 C15,3.40537515 15.31248,2.90568266 15.56256,2.2499262 L15.15632,2.46851169 C14.75008,2.68709717 14.0312,2.99938499 13.4688,3.03056581 C12.84368,2.46851169 12.15632,2 10.87504,2 L10.4688,2.06252153 C10.21872,2.12488315 9.9688,2.18740467 9.75008,2.28110701 C8.81248,2.68709717 8.18752,3.43655597 7.90624,4.49846248 C7.78128,4.90445264 7.71872,5.59154982 7.87504,6.02872079 C7.34368,6.02872079 6.84368,5.93501845 6.40624,5.84131611 C4.65632,5.40414514 3.59376,4.84193112 2.40624,3.90506765 C2.0312,3.62396064 1.68752,3.31167282 1.40624,2.96820418 C1.31248,2.84316113 1.18752,2.7496187 1.12496,2.62457565 L1.09376,2.62457565 C0.9688,2.87450185 0.84368,3.15560886 0.75008,3.46789668 C0.43744,4.71704797 0.93744,5.74777368 1.5,6.43471095 C1.65632,6.65345633 1.93744,6.77833948 2.09376,6.96574416 C1.9688,7.02810578 1.78128,6.96574416 1.65632,6.93440344 C1.40624,6.87204182 0.75008,6.62211562 0.62496,6.59093481 C0.62496,7.96512915 1.31248,8.83947109 2.18752,9.40168512 C2.4688,9.55790898 2.84368,9.80767528 3.24992,9.80767528 C3.0312,9.99507995 2.09376,9.90137761 1.78128,9.8701968 C2.18752,10.9007626 2.81248,11.6190406 3.87504,11.9938499 C4.15632,12.0875523 4.4688,12.1500738 4.84368,12.1500738 C4.65632,12.3998401 4.21872,12.5872448 3.9688,12.7434686 C3.37504,13.0557565 0.31248,13.5241082 0,13.5241082 C0.09376,13.555449 0.18752,13.6178106 0.28128,13.6803321 C0.59376,13.8677368 0.87504,14.0238007 1.21872,14.1800246 C1.81248,14.4297909 2.43744,14.6171956 3.15632,14.8046002 C4.56256,15.1482288 6.56256,14.9920049 7.78128,14.6171956 C11.21872,13.5241082 13.40624,11.0256458 14.21872,7.34055351 C14.37504,6.71581796 14.37504,5.99753998 14.37504,5.24808118 L14.87504,4.84193112 C15.31248,4.49846248 15.71872,4.0299508 16,3.56159902 C15.43744,3.71766298 14.84368,4.06129151 14.15632,4.06129151 L14.15632,4.06129151 Z" id="Shape"></path>
            </g>
        </g>
    </g>
</svg>

<svg xmlns="http://www.w3.org/2000/svg" viewBox="0 0 16 16">
    <path d="M14.156 4.061c.125-.062.25-.187.344-.28a3.23 3.23 0 0 0 1.063-1.531l-.407.219a4.679 4.679 0 0 1-1.687.562A3.503 3.503 0 0 0 10.875 2l-.406.063c-.25.062-.5.124-.719.218a3.172 3.172 0 0 0-1.844 2.217 2.823 2.823 0 0 0-.031 1.53 6.98 6.98 0 0 1-1.469-.187 9.583 9.583 0 0 1-4-1.936 5.73 5.73 0 0 1-1-.937c-.094-.125-.218-.218-.281-.343h-.031a5.26 5.26 0 0 0-.344.843c-.313 1.249.187 2.28.75 2.967.156.218.437.343.594.53-.125.063-.313 0-.438-.03-.25-.063-.906-.313-1.031-.344A3.18 3.18 0 0 0 2.188 9.4c.28.157.656.407 1.062.407-.219.187-1.156.093-1.469.062.407 1.03 1.031 1.749 2.094 2.124.281.094.594.156.969.156-.188.25-.625.437-.875.593-.594.313-3.657.781-3.969.781.094.031.188.094.281.156.313.188.594.344.938.5.593.25 1.218.437 1.937.625 1.407.343 3.407.187 4.625-.188 3.438-1.093 5.625-3.591 6.438-7.276.156-.625.156-1.343.156-2.093l.5-.406A4.885 4.885 0 0 0 16 3.562c-.563.156-1.156.5-1.844.5z"/>
</svg>
